mobile/24/svg/avatar-circle-24.svg

<svg width="24" height="24" fill="none" xmlns="http://www.w3.org/2000/svg"><path d="M12 6a3.006 3.006 0 0 0-2.897 3.799 2.967 2.967 0 0 0 2.098 2.098A3.006 3.006 0 0 0 15 9a3 3 0 0 0-3-3z" fill="#000"/><path d="M12 3.75c4.549 0 8.25 3.701 8.25 8.25 0 4.549-3.701 8.25-8.25 8.25-4.549 0-8.25-3.701-8.25-8.25 0-4.549 3.701-8.25 8.25-8.25zM12 2C6.477 2 2 6.477 2 12s4.477 10 10 10 10-4.477 10-10S17.523 2 12 2z" fill="#000"/><path d="M12 18.75a6.753 6.753 0 0 0 5.908-3.492A2.491 2.491 0 0 0 15.75 14h-7.5c-.926 0-1.726.51-2.158 1.258A6.753 6.753 0 0 0 12 18.75z" fill="#000"/></svg>

<svg width="24" height="24" viewBox="0 0 24 24" fill="none" xmlns="http://www.w3.org/2000/svg">
<path d="M12 6C10.083 6 8.586 7.798 9.103 9.799C9.364 10.809 10.19 11.636 11.201 11.897C13.202 12.414 15 10.917 15 9C15 7.343 13.657 6 12 6Z" fill="black"/>
<path d="M12 3.75C16.549 3.75 20.25 7.451 20.25 12C20.25 16.549 16.549 20.25 12 20.25C7.451 20.25 3.75 16.549 3.75 12C3.75 7.451 7.451 3.75 12 3.75ZM12 2C6.477 2 2 6.477 2 12C2 17.523 6.477 22 12 22C17.523 22 22 17.523 22 12C22 6.477 17.523 2 12 2Z" fill="black"/>
<path d="M12 18.75C14.541 18.75 16.756 17.338 17.908 15.258C17.476 14.51 16.676 14 15.75 14H8.25C7.324 14 6.524 14.51 6.092 15.258C7.244 17.338 9.459 18.75 12 18.75Z" fill="black"/>
</svg>
